resources/svg/align-center-horizontal.svg

<svg viewBox="0 0 15 15" fill="none" xmlns="http://www.w3.org/2000/svg" fill="currentColor"><path d="M7 0v3H3.5v4H7v1H1v4h6v3h1v-3h6V8H8V7h3.5V3H8V0H7z" fill="currentColor"/></svg>

<svg width="15" height="15" viewBox="0 0 15 15" fill="none" xmlns="http://www.w3.org/2000/svg">
<path d="M7 0V3H3.5V7H7V8H1V12H7V15H8V12H14V8H8V7H11.5V3H8V0H7Z" fill="black"/>
</svg>
